;FLAVOR:Marlin
;TIME:10690
;Filament used: 14.115m
;Layer height: 0.2
;MINX:41
;MINY:58
;MINZ:0.2
;MAXX:194
;MAXY:177
;MAXZ:20
;TARGET_MACHINE.NAME:Creality Ender-3 Pro
;Generated with Cura_SteamEngine 5.8.0
M140 S60
M105
M190 S60
M104 S220
M105
M109 S220
M82 ;absolute extrusion mode
G28 ; Home all axes
BED_MESH_CALIBRATE ; Perform bed mesh leveling
G1 Z2.0 F3000 ; Ensure Z is at a safe height

G92 E0 ; Reset Extruder
G1 X10.1 Y20 Z0.28 F5000.0 ; Move to start position
G1 X10.1 Y200.0 Z0.28 F1500.0 E15 ; Draw the first line
G1 X10.4 Y200.0 Z0.28 F5000.0 ; Move to side a little
G1 X10.4 Y20 Z0.28 F1500.0 E30 ; Draw the second line
G92 E0 ; Reset Extruder
G1 Z2.0 F3000 ; Move Z Axis up
G92 E0
G92 E0
G1 F1500 E-6.5
;LAYER_COUNT:100
;LAYER:0
M107
G0 F6000 X45.272 Y60.572 Z0.2
;TYPE:SKIRT
G1 F1500 E0
G1 F1200 X46.179 Y59.909 E0.05605
G1 X47.047 Y59.389 E0.10653
G1 X47.959 Y58.948 E0.15707
G1 X48.857 Y58.605 E0.20503
G1 X49.83 Y58.327 E0.25552
G1 X50.896 Y58.124 E0.30965
G1 X52.194 Y58.013 E0.37465
G1 X52.804 Y58 E0.40509
G1 X181.809 Y58 E6.84117
G1 X182.71 Y58.013 E6.88613
G1 X183.669 Y58.071 E6.93406
G1 X184.72 Y58.229 E6.98709
G1 X185.603 Y58.44 E7.03238
G1 X186.667 Y58.796 E7.08835
G1 X187.593 Y59.205 E7.13886
G1 X188.478 Y59.692 E7.18926
G1 X189.234 Y60.195 E7.23456
G1 X190.108 Y60.895 E7.29042
G1 X190.764 Y61.522 E7.3357
G1 X191.502 Y62.365 E7.39159
G1 X192.066 Y63.142 E7.43949
G1 X192.614 Y64.055 E7.49262
G1 X193.013 Y64.87 E7.53789
G1 X193.414 Y65.917 E7.59382
G1 X193.687 Y66.892 E7.64434
G1 X193.877 Y67.905 E7.69576
G1 X193.987 Y69.194 E7.7603
G1 X194 Y69.83 E7.79204
G1 X193.999 Y164.907 E12.53545
G1 X193.988 Y165.688 E12.57442
G1 X193.927 Y166.699 E12.62495
G1 X193.796 Y167.597 E12.67022
G1 X193.553 Y168.633 E12.72331
G1 X193.215 Y169.645 E12.77654
G1 X192.854 Y170.478 E12.82184
G1 X192.319 Y171.46 E12.87763
G1 X191.755 Y172.304 E12.92827
G1 X191.154 Y173.053 E12.97618
G1 X190.454 Y173.786 E13.02675
G1 X189.654 Y174.487 E13.07981
G1 X188.922 Y175.024 E13.12511
G1 X187.965 Y175.603 E13.18091
G1 X187.053 Y176.047 E13.23152
G1 X186.207 Y176.373 E13.27675
G1 X185.13 Y176.683 E13.33266
G1 X184.117 Y176.874 E13.38409
G1 X182.806 Y176.987 E13.44974
G1 X182.17 Y177 E13.48148
G1 X53.058 Y176.999 E19.9229
G1 X52.306 Y176.988 E19.96042
G1 X51.296 Y176.926 E20.01091
G1 X50.346 Y176.785 E20.05882
G1 X49.308 Y176.536 E20.11208
G1 X48.348 Y176.211 E20.16264
G1 X47.469 Y175.826 E20.21052
G1 X46.535 Y175.316 E20.26361
G1 X45.692 Y174.753 E20.31418
G1 X44.983 Y174.186 E20.35947
G1 X44.173 Y173.413 E20.41533
G1 X43.51 Y172.65 E20.46576
G1 X42.943 Y171.873 E20.51375
G1 X42.394 Y170.96 E20.5669
G1 X41.972 Y170.097 E20.61483
G1 X41.591 Y169.102 E20.66798
G1 X41.34 Y168.23 E20.71326
G1 X41.125 Y167.11 E20.77015
G1 X41.013 Y165.794 E20.83605
G1 X41 Y165.158 E20.86778
G1 X41.001 Y70.018 E25.61434
G1 X41.012 Y69.3 E25.65016
G1 X41.069 Y68.341 E25.69809
G1 X41.226 Y67.288 E25.75121
G1 X41.436 Y66.405 E25.79649
G1 X41.773 Y65.393 E25.8497
G1 X42.2 Y64.415 E25.90294
G1 X42.688 Y63.528 E25.95345
G1 X43.252 Y62.686 E26.00401
G1 X43.888 Y61.898 E26.05453
G1 X44.515 Y61.242 E26.09981
G1 X45.272 Y60.572 E26.15024
G0 F6000 X45.669 Y61.022
G1 F1200 X46.488 Y60.423 E26.20086
G1 X47.31 Y59.929 E26.24871
G1 X48.173 Y59.509 E26.29659
G1 X49.071 Y59.166 E26.34455
G1 X49.944 Y58.916 E26.38985
G1 X50.948 Y58.722 E26.44087
G1 X52.207 Y58.613 E26.50392
G1 X52.817 Y58.6 E26.53436
G1 X181.801 Y58.6 E32.9694
G1 X182.674 Y58.612 E33.01295
G1 X183.633 Y58.67 E33.06089
G1 X184.581 Y58.813 E33.10872
G1 X185.464 Y59.024 E33.15401
G1 X186.426 Y59.345 E33.20461
G1 X187.305 Y59.731 E33.2525
G1 X188.146 Y60.192 E33.30035
G1 X188.902 Y60.695 E33.34565
G1 X189.693 Y61.329 E33.39623
G1 X190.349 Y61.956 E33.4415
G1 X191.017 Y62.719 E33.49209
G1 X191.552 Y63.452 E33.53737
G1 X192.075 Y64.319 E33.58788
G1 X192.474 Y65.134 E33.63315
G1 X192.837 Y66.08 E33.68371
G1 X193.098 Y67.004 E33.73161
G1 X193.279 Y67.957 E33.78
G1 X193.387 Y69.207 E33.8426
G1 X193.4 Y69.83 E33.87369
G1 X193.399 Y164.899 E38.6167
G1 X193.389 Y165.653 E38.65432
G1 X193.333 Y166.612 E38.70225
G1 X193.202 Y167.51 E38.74752
G1 X192.983 Y168.444 E38.79538
G1 X192.664 Y169.406 E38.84595
G1 X192.303 Y170.239 E38.89124
G1 X191.819 Y171.128 E38.94174
G1 X191.287 Y171.928 E38.98967
G1 X190.686 Y172.677 E39.03758
G1 X190.021 Y173.371 E39.08553
G1 X189.299 Y174.003 E39.13341
G1 X188.567 Y174.54 E39.1787
G1 X187.701 Y175.064 E39.2292
G1 X186.837 Y175.487 E39.27719
G1 X185.991 Y175.813 E39.32242
G1 X185.017 Y176.094 E39.373
G1 X184.065 Y176.276 E39.42135
G1 X182.793 Y176.387 E39.48506
G1 X182.17 Y176.4 E39.51614
G1 X53.066 Y176.399 E45.95717
G1 X52.342 Y176.389 E45.99329
G1 X51.383 Y176.332 E46.04122
G1 X50.485 Y176.201 E46.0865
G1 X49.499 Y175.967 E46.13706
G1 X48.589 Y175.661 E46.18495
G1 X47.71 Y175.276 E46.23283
G1 X46.867 Y174.816 E46.28074
G1 X46.067 Y174.284 E46.32867
G1 X45.358 Y173.717 E46.37396
G1 X44.625 Y173.018 E46.4245
G1 X43.994 Y172.295 E46.47237
G1 X43.457 Y171.563 E46.51766
G1 X42.933 Y170.696 E46.56821
G1 X42.511 Y169.833 E46.61613
G1 X42.168 Y168.936 E46.66404
G1 X41.917 Y168.064 E46.70932
G1 X41.723 Y167.059 E46.76038
G1 X41.613 Y165.782 E46.82433
G1 X41.6 Y165.158 E46.85546
G1 X41.601 Y70.027 E51.60157
G1 X41.611 Y69.336 E51.63605
G1 X41.668 Y68.377 E51.68398
G1 X41.81 Y67.427 E51.7319
G1 X42.02 Y66.544 E51.77718
G1 X42.323 Y65.632 E51.82513
G1 X42.726 Y64.703 E51.87565
G1 X43.187 Y63.861 E51.92354
G1 X43.72 Y63.062 E51.97146
G1 X44.322 Y62.313 E52.0194
G1 X44.949 Y61.657 E52.06467
G1 X45.669 Y61.022 E52.11257
G0 F6000 X46.065 Y61.473
G1 F1200 X46.798 Y60.937 E52.15787
G1 X47.574 Y60.468 E52.20311
G1 X48.389 Y60.069 E52.24838
G1 X49.236 Y59.743 E52.29366
G1 X50.109 Y59.493 E52.33896
G1 X51 Y59.32 E52.38424
G1 X52.22 Y59.213 E52.44534
G1 X52.83 Y59.2 E52.47578
G1 X181.793 Y59.2 E58.90977
G1 X182.639 Y59.211 E58.95198
G1 X183.545 Y59.264 E58.99726
G1 X184.442 Y59.397 E59.0425
G1 X185.325 Y59.608 E59.0878
G1 X186.186 Y59.895 E59.13307
G1 X187.018 Y60.258 E59.17836
G1 X187.814 Y60.692 E59.22359
G1 X188.57 Y61.195 E59.2689
G1 X189.278 Y61.763 E59.31418
G1 X189.934 Y62.39 E59.35945
G1 X190.532 Y63.073 E59.40474
G1 X191.067 Y63.806 E59.45002
G1 X191.536 Y64.583 E59.4953
G1 X191.935 Y65.398 E59.54057
G1 X192.26 Y66.245 E59.58583
G1 X192.509 Y67.118 E59.63112
G1 X192.681 Y68.009 E59.67639
G1 X192.787 Y69.22 E59.73704
G1 X192.8 Y69.83 E59.76748
G1 X192.799 Y164.892 E64.51014
G1 X192.79 Y165.619 E64.54642
G1 X192.739 Y166.525 E64.59169
G1 X192.608 Y167.423 E64.63697
G1 X192.399 Y168.306 E64.68224
G1 X192.113 Y169.167 E64.7275
G1 X191.752 Y170 E64.77279
G1 X191.319 Y170.797 E64.81804
G1 X190.818 Y171.554 E64.86333
G1 X190.252 Y172.263 E64.90859
G1 X189.625 Y172.92 E64.9539
G1 X188.944 Y173.519 E64.99915
G1 X188.212 Y174.056 E65.04444
G1 X187.436 Y174.526 E65.08971
G1 X186.621 Y174.927 E65.13502
G1 X185.775 Y175.253 E65.18025
G1 X184.903 Y175.505 E65.22554
G1 X184.012 Y175.678 E65.27082
G1 X182.78 Y175.787 E65.33253
G1 X182.17 Y175.8 E65.36297
G1 X53.074 Y175.799 E71.80359
G1 X52.376 Y175.79 E71.83842
G1 X51.47 Y175.738 E71.88369
G1 X50.572 Y175.607 E71.92897
G1 X49.689 Y175.398 E71.97424
G1 X48.828 Y175.111 E72.01952
G1 X47.996 Y174.749 E72.06478
G1 X47.198 Y174.316 E72.11008
G1 X46.442 Y173.815 E72.15533
G1 X45.733 Y173.248 E72.20062
G1 X45.076 Y172.622 E72.24589
G1 X44.478 Y171.94 E72.29115
G1 X43.941 Y171.208 E72.33644
G1 X43.471 Y170.431 E72.38174
G1 X43.071 Y169.617 E72.42699
G1 X42.745 Y168.77 E72.47227
G1 X42.494 Y167.898 E72.51754
G1 X42.321 Y167.007 E72.56283
G1 X42.213 Y165.769 E72.62482
G1 X42.2 Y165.158 E72.65531
G1 X42.201 Y70.035 E77.40102
G1 X42.21 Y69.37 E77.4342
G1 X42.262 Y68.464 E77.47947
G1 X42.394 Y67.566 E77.52476
G1 X42.604 Y66.683 E77.57004
G1 X42.892 Y65.822 E77.61533
G1 X43.253 Y64.99 E77.66058
G1 X43.687 Y64.193 E77.70586
G1 X44.189 Y63.437 E77.75113
G1 X44.756 Y62.728 E77.79642
G1 X45.383 Y62.072 E77.8417
G1 X46.065 Y61.473 E77.88698
G1 F1500 E71.38698
;MESH:alexaCarrier v3.stl
G0 F6000 X53.114 Y68.835
G0 X53.4 Y70.4
;TYPE:WALL-INNER
G1 F1500 E77.88698
G1 F1200 X53.4 Y164.6 E82.58664
G1 X181.6 Y164.6 E88.98256
G1 X181.6 Y70.4 E93.68222
G1 X53.4 Y70.4 E100.07814
G1 F1500 E93.57814
G0 F6000 X87.559 Y70.7
G0 X89.309 Y91.748
G0 X87.709 Y94.066
G1 F1500 E100.07814
G1 F1200 X89.509 Y91.945 E100.21693
G1 X91.466 Y89.955 E100.35618
G1 X93.58 Y88.102 E100.49643
G1 X95.828 Y86.403 E100.63701
G1 X98.165 Y84.901 E100.77561
G1 X100.652 Y83.548 E100.91686
G1 X103.187 Y82.402 E101.05565
G1 X105.812 Y81.446 E101.19503
G1 X108.498 Y80.682 E101.33435
G1 X111.232 Y80.121 E101.47359
G1 X114.049 Y79.757 E101.6153
G1 X116.818 Y79.604 E101.75365
G1 X119.623 Y79.659 E101.89362
G1 X122.347 Y79.911 E102.0301
G1 X125.166 Y80.381 E102.17269
G1 X127.83 Y81.033 E102.30952
G1 X130.557 Y81.918 E102.45255
G1 X133.146 Y82.978 E102.59212
G1 X135.659 Y84.233 E102.73226
G1 X138.063 Y85.661 E102.87176
G1 X140.353 Y87.262 E103.01116
G1 X142.531 Y89.042 E103.1515
G1 X144.565 Y90.969 E103.29128
G1 X146.445 Y93.033 E103.43057
G1 X148.183 Y95.256 E103.57135
G1 X149.718 Y97.534 E103.70839
G1 X151.103 Y99.967 E103.84807
G1 X152.319 Y102.528 E103.98951
G1 X153.308 Y105.083 E104.12619
G1 X154.147 Y107.838 E104.26987
G1 X154.755 Y110.554 E104.40873
G1 X155.163 Y113.282 E104.54634
G1 X155.374 Y116.08 E104.68633
G1 X155.37 Y118.914 E104.82772
G1 X155.163 Y121.713 E104.96774
G1 X154.747 Y124.49 E105.10783
G1 X154.13 Y127.222 E105.24757
G1 X153.308 Y129.918 E105.38818
G1 X152.302 Y132.506 E105.52671
G1 X151.098 Y135.039 E105.66663
G1 X149.714 Y137.462 E105.80585
G1 X148.165 Y139.769 E105.94448
G1 X146.407 Y142.006 E106.08642
G1 X144.575 Y144.022 E106.22233
G1 X142.49 Y145.994 E106.36551
G1 X140.323 Y147.759 E106.50494
G1 X138.005 Y149.37 E106.64577
G1 X135.6 Y150.799 E106.78534
G1 X133.082 Y152.045 E106.9255
G1 X130.498 Y153.101 E107.06477
G1 X127.846 Y153.959 E107.20383
G1 X125.102 Y154.628 E107.34474
G1 X122.347 Y155.089 E107.4841
G1 X119.619 Y155.341 E107.62078
G1 X116.769 Y155.391 E107.76299
G1 X113.984 Y155.233 E107.90215
G1 X111.206 Y154.87 E108.04193
G1 X108.458 Y154.302 E108.18192
G1 X105.771 Y153.538 E108.32129
G1 X103.187 Y152.594 E108.45854
G1 X100.649 Y151.449 E108.59745
G1 X98.108 Y150.061 E108.7419
G1 X95.773 Y148.555 E108.88053
G1 X93.546 Y146.869 E109.01988
G1 X91.433 Y145.011 E109.16026
G1 X89.509 Y143.051 E109.29728
G1 X87.667 Y140.878 E109.4394
G1 X86.051 Y138.654 E109.57656
G1 X84.565 Y136.254 E109.71739
G1 X83.271 Y133.775 E109.8569
G1 X82.145 Y131.154 E109.99922
G1 X81.23 Y128.491 E110.1397
G1 X80.519 Y125.801 E110.27851
G1 X80.017 Y123.108 E110.41518
G1 X79.7 Y120.258 E110.55824
G1 X79.6 Y117.475 E110.69718
G1 X79.705 Y114.672 E110.83712
G1 X80.015 Y111.899 E110.97633
G1 X80.534 Y109.129 E111.11693
G1 X81.249 Y106.442 E111.25565
G1 X82.172 Y103.777 E111.39635
G1 X83.273 Y101.215 E111.53547
G1 X84.553 Y98.762 E111.67351
G1 X86.024 Y96.386 E111.81293
G1 X87.709 Y94.066 E111.95598
G0 F6000 X88.153 Y94.471
;TYPE:WALL-OUTER
G1 F1200 X89.937 Y92.365 E112.09368
G1 X91.845 Y90.421 E112.22958
G1 X93.942 Y88.58 E112.3688
G1 X96.134 Y86.92 E112.50598
G1 X98.433 Y85.439 E112.64241
G1 X100.9 Y84.094 E112.78259
G1 X103.372 Y82.974 E112.91799
G1 X105.977 Y82.023 E113.05634
G1 X108.597 Y81.275 E113.19228
G1 X111.349 Y80.71 E113.33244
G1 X114.083 Y80.356 E113.46998
G1 X116.806 Y80.204 E113.60604
G1 X119.568 Y80.257 E113.74386
G1 X122.314 Y80.512 E113.88145
G1 X125.024 Y80.964 E114.01852
G1 X127.709 Y81.622 E114.15644
G1 X130.309 Y82.466 E114.29282
G1 X132.878 Y83.515 E114.43126
G1 X135.353 Y84.749 E114.56924
G1 X137.72 Y86.153 E114.70654
G1 X139.956 Y87.713 E114.84256
G1 X142.119 Y89.478 E114.98184
G1 X144.122 Y91.373 E115.1194
G1 X145.958 Y93.385 E115.25529
G1 X147.673 Y95.575 E115.39407
G1 X149.213 Y97.859 E115.5315
G1 X150.571 Y100.245 E115.66847
G1 X151.772 Y102.775 E115.80819
G1 X152.748 Y105.299 E115.9432
G1 X153.561 Y107.97 E116.08249
G1 X154.161 Y110.643 E116.21917
G1 X154.572 Y113.393 E116.35789
G1 X154.776 Y116.125 E116.49457
G1 X154.772 Y118.87 E116.63152
G1 X154.572 Y121.602 E116.76818
G1 X154.161 Y124.358 E116.9072
G1 X153.556 Y127.048 E117.04476
G1 X152.756 Y129.68 E117.182
G1 X151.76 Y132.249 E117.31946
G1 X150.588 Y134.721 E117.45595
G1 X149.198 Y137.156 E117.59583
G1 X147.672 Y139.426 E117.7323
G1 X145.963 Y141.602 E117.87034
G1 X144.131 Y143.618 E118.00624
G1 X142.11 Y145.529 E118.14501
G1 X139.98 Y147.267 E118.28216
G1 X137.716 Y148.843 E118.41978
G1 X135.334 Y150.261 E118.55808
G1 X132.854 Y151.49 E118.69617
G1 X130.313 Y152.53 E118.83315
G1 X127.704 Y153.376 E118.96998
G1 X125.002 Y154.036 E119.10875
G1 X122.292 Y154.491 E119.24585
G1 X119.564 Y154.743 E119.38253
G1 X116.803 Y154.792 E119.52029
G1 X114.061 Y154.638 E119.65731
G1 X111.349 Y154.286 E119.79375
G1 X108.622 Y153.725 E119.93265
G1 X105.977 Y152.974 E120.06982
G1 X103.372 Y152.022 E120.20819
G1 X100.876 Y150.892 E120.34489
G1 X98.433 Y149.557 E120.48378
G1 X96.153 Y148.089 E120.61907
G1 X93.942 Y146.418 E120.75733
G1 X91.861 Y144.591 E120.89549
G1 X89.937 Y142.631 E121.03251
G1 X88.153 Y140.525 E121.17021
G1 X86.53 Y138.292 E121.30794
G1 X85.082 Y135.947 E121.44543
G1 X83.808 Y133.507 E121.58276
G1 X82.712 Y130.958 E121.72119
G1 X81.816 Y128.358 E121.85839
G1 X81.109 Y125.691 E121.99604
G1 X80.605 Y122.986 E122.13332
G1 X80.301 Y120.258 E122.27026
G1 X80.2 Y117.497 E122.4081
G1 X80.301 Y114.738 E122.54584
G1 X80.601 Y112.03 E122.68177
G1 X81.114 Y109.283 E122.82119
G1 X81.816 Y106.638 E122.95771
G1 X82.724 Y104.013 E123.09629
G1 X83.805 Y101.493 E123.23309
G1 X85.08 Y99.05 E123.37057
G1 X86.522 Y96.72 E123.50728
G1 X88.153 Y94.471 E123.64588
G1 F1500 E117.14588
G0 F6000 X87.507 Y94.003
G0 X86.914 Y94.685
G0 X86.914 Y70.7
G0 X52.8 Y69.8
G1 F1500 E123.64588
G1 F1200 X52.8 Y165.2 E128.40541
G1 X182.2 Y165.2 E134.8612
G1 X182.2 Y69.8 E139.62073
G1 X52.8 Y69.8 E146.07652
G1 F1500 E139.57652
G0 F6000 X53.17 Y70.17
G0 X87.013 Y70.7
G0 X89.309 Y91.748
G0 X86.737 Y94.481
;TYPE:SKIN
G1 F1500 E146.07652
G1 F1200 X85.566 Y96.092 E146.17588
G1 X84.112 Y98.446 E146.31392
G1 X82.768 Y101.011 E146.45839
G1 X81.636 Y103.662 E146.6022
G1 X80.736 Y106.27 E146.73985
G1 X80.01 Y108.994 E146.88049
G1 X79.481 Y111.81 E147.02344
G1 X79.161 Y114.698 E147.1684
G1 X79.06 Y117.453 E147.30594
G1 X79.157 Y120.298 E147.44796
G1 X79.473 Y123.106 E147.58894
G1 X79.988 Y125.903 E147.73083
G1 X80.736 Y128.719 E147.87619
G1 X81.668 Y131.415 E148.0185
G1 X82.776 Y133.991 E148.15841
G1 X84.124 Y136.57 E148.30359
G1 X85.574 Y138.916 E148.44118
G1 X87.229 Y141.193 E148.58162
G1 X89.125 Y143.431 E148.72796
G1 X91.041 Y145.383 E148.86442
G1 X93.262 Y147.334 E149.0119
G1 X95.447 Y148.984 E149.1485
G1 X97.88 Y150.556 E149.29302
G1 X100.328 Y151.892 E149.43215
G1 X102.904 Y153.062 E149.5733
G1 X105.572 Y154.042 E149.71511
G1 X108.302 Y154.817 E149.85669
G1 X111.206 Y155.418 E150.00464
G1 X114.006 Y155.774 E150.14546
G1 X116.731 Y155.928 E150.28163
G1 X119.58 Y155.883 E150.42378
G1 X122.484 Y155.611 E150.5693
G1 X125.186 Y155.16 E150.70596
G1 X127.989 Y154.478 E150.84989
G1 X130.649 Y153.618 E150.98936
G1 X133.366 Y152.506 E151.13582
G1 X135.858 Y151.274 E151.27451
G1 X138.282 Y149.83 E151.41528
G1 X140.642 Y148.193 E151.55857
G1 X142.855 Y146.387 E151.70108
G1 X144.959 Y144.399 E151.84549
G1 X146.817 Y142.358 E151.98319
G1 X148.593 Y140.094 E152.12675
G1 X150.19 Y137.716 E152.26966
G1 X151.561 Y135.313 E152.40768
G1 X152.8 Y132.709 E152.55156
G1 X153.848 Y130.004 E152.69628
G1 X154.644 Y127.384 E152.83289
G1 X155.285 Y124.538 E152.97844
